X:1
T:Title
%%score { ( 1 3 ) | ( 2 4 ) }
L:1/8
M:4/4
K:A
V:1 treble nm="Grand Piano"
V:3 treble 
V:2 bass 
V:4 bass 
V:1
 z4 z2[Q:1/4=100] [A,C]>[B,D] | [CE]2 [CE]>[DF] [CE]2 [EA]>B | c2 c>B [CA]2 [CE]>[CE] | %3
 [A,DF]2 [A,DF]>[A,EG] [A,FA]>[B,^EG] [A,FA]>[A,DF] | %4
 [CE]2- [E,C-E-]>[C,C-E-] [A,,CE]2 C>[K:treble][B,D] | [CE]2 [CE]>[DF] [CE]2 [EA]>B | %6
 c2 c>d e2 [Fd]>[Fd] | c2 c>d B>^A B>c |[M:3/4] [CA]6 |[M:1/4] [A,C]>[B,D] | %10
[M:4/4] E->[CE-] [B,E-]>[DE-] [CE]2 c>d | e6 z2 | [ce]4 z4 | B6[K:bass] z2 | %14
 C>C B,>[K:treble]D C2 c>d | e6 z2 | [EAc]2 [EAc]>[FAd] [DGB]>[CG^A] [DGB]>[EGc] |[M:3/4] [CEA]6 |] %18
V:2
 z4 z2 [A,,E,]>[A,,E,] | [A,,A,]2 [A,,A,]>[A,,A,] [A,,A,]2 [C,A,]>[E,G,E] | %2
 [A,E]2 [E,A,E]>[E,G,D] [A,,A,]2 [A,,A,]>[A,,A,] | D,2 D,>D, D,>D, D,>D, | %4
 z z/ A,/- A,4 [A,,E,A,]>[A,,E,] | [A,,A,]2 [A,,A,]>[A,,A,] [A,,A,]2 [C,A,]>[E,G,E] | %6
 [A,E]2 [A,E]>[A,B,E] [A,CE]2 [D,A,]>[D,A,] | %7
 [E,A,E]2 [E,A,E]>[E,A,F] [E,G,D]>[E,G,C] [E,G,D]>[E,G,E] |[M:3/4] [A,,A,]6 | %9
[M:1/4] [A,,E,]>[A,,E,] |[M:4/4] [A,,A,]>[A,,A,] [E,G,]>[E,B,] [A,,A,]2[K:treble] [A,E]>[A,B,E] | %11
 [A,CA]>[K:bass][A,C] [E,B,]>[E,D][K:treble] [A,C]2 [A,EA]>[A,E] | [A,E]>A,[K:bass] A,>A, G,2 A,2 | %13
 E,>^D, E,>F, E,>=D, C,>B,, | [A,,A,]>[A,,A,] [E,G,]>[E,B,] [A,,A,]2[K:treble] [A,E]>[A,B,E] | %15
 [A,CA]>[K:bass][A,C] [E,B,]>[E,D] [A,C]2 D,>D, | E,2 E,>E, E,>E, E,>E, |[M:3/4] A,,6 |] %18
V:3
 x8 | x8 | x8 | x8 | A,2 z2 z4[K:treble] | x8 | x8 | x8 |[M:3/4] x6 |[M:1/4] x2 |[M:4/4] C2 z2 z4 | %11
 z z/ A/ G>B A2 c>[Bd] | z z/ E/ E>[EAc] [EBd]2 [EAc]2 | %13
 [EG]>[EG] [EG]>[EG] [EG]2[K:bass] [E,A,C]>[E,B,D] | E6[K:treble] z2 | z z/ A/ G>B A2 [FAd]>[FAd] | %16
 x8 |[M:3/4] x6 |] %18
V:4
 x8 | x8 | x8 | x8 | A,,4 z4 | x8 | x8 | x8 |[M:3/4] x6 |[M:1/4] x2 |[M:4/4] x6[K:treble] x2 | %11
 x3/2[K:bass] x5/2[K:treble] x4 | x2[K:bass] x6 | x8 | x6[K:treble] x2 | x3/2[K:bass] x13/2 | x8 | %17
[M:3/4] x6 |] %18

